layouts/icon-pack/armor_light_feet.svg

<?xml version="1.0" encoding="UTF-8"?>
<svg width="1200pt" height="1200pt" version="1.1" viewBox="0 0 1200 1200" xmlns="http://www.w3.org/2000/svg">
 <g fill="#fff">
  <path d="m750.87 56.086h-161.13c-7.8984-0.003907-15.422 3.3633-20.68 9.2539-5.2578 5.8906-7.7539 13.742-6.8594 21.59 7.0312 60.82 25.359 204.35 59.883 365.46 0 0 44.531 177.47-3.2578 296.84-2.1953 5.5977-2.3672 11.785-0.48437 17.492 1.8828 5.7109 5.7031 10.582 10.797 13.773 15.258 9.75 33.516 22.477 42.656 30.68 14.371 13.133 27.039 28.016 37.711 44.297 18.914 28.406 73.711 94.125 173.23 90.352 28.172-1.1562 56.387-0.027343 84.375 3.375 5.332 0.64844 10.645-1.3594 14.219-5.3672 3.5781-4.0117 4.9609-9.5195 3.7109-14.742-4.4062-18.492-9.375-37.711-15-57.492-8.3633-29.477-15.102-59.387-20.18-89.602-3.1992-18.262-12.867-34.758-27.234-46.477-39.539-33.023-72.875-72.836-98.438-117.56-32.566-56.719-49.625-121.02-49.453-186.42v-351.56c-0.007812-6.3281-2.5195-12.395-6.9922-16.871-4.4727-4.4766-10.539-7-16.867-7.0117z"/>
  <path d="m307.29 977.58c4.5703 5.1094 9.6094 10.289 15.234 15.516 37.008 34.5 52.734 86.414 58.594 134.32 0.60937 4.543 2.8438 8.707 6.293 11.727 3.4492 3.0156 7.875 4.6797 12.457 4.6797h120.45c5.2852 0.019532 10.34-2.1641 13.945-6.0312 3.6055-3.8672 5.4297-9.0625 5.0391-14.336-3.375-42.938-14.719-90.75-45.398-119.32-31.078-28.945-48.938-57.773-59.086-82.781-1.582-3.9102-4.6797-7.0156-8.582-8.6133-3.9062-1.5977-8.2891-1.5508-12.16 0.12891-31.922 14.062-65.742 27.492-100.08 39.328-5.0234 1.668-8.8672 5.7578-10.219 10.879-1.3516 5.1172-0.03125 10.574 3.5156 14.504z"/>
  <path d="m846.38 56.086c-6.3438 0-12.426 2.5195-16.914 7-4.4844 4.4844-7.0078 10.562-7.0156 16.906v351.56c-0.17578 57.02 14.668 113.08 43.031 162.54 13.992 24.312 30.488 47.09 49.219 67.969 3.8047 4.1836 9.8086 5.5742 15.066 3.4922 5.2578-2.0859 8.6758-7.2109 8.582-12.867-1.1211-102.98 17.168-205.25 53.906-301.45 1.5234-4.0312 3.0938-8.0625 4.6875-12.141 0 0 69.117-155.09 53.414-259.1-0.94922-6.6133-4.25-12.668-9.293-17.051-5.043-4.3867-11.492-6.8086-18.176-6.832z"/>
  <path d="m477.09 899.41c7.4297 19.898 21.797 44.414 49.219 69.938 42.938 40.008 57.234 103.43 60.797 156.87 0.32031 4.8047 2.4609 9.3086 5.9805 12.598 3.5234 3.2852 8.1641 5.1094 12.98 5.0977h378.09c9.0352 0.015626 17.648-3.8047 23.707-10.508 6.0547-6.7031 8.9805-15.664 8.0508-24.648-1.9688-19.547-5.25-46.453-10.547-78.75-1.3203-7.9922-5.1211-15.367-10.867-21.074-5.75-5.7109-13.148-9.4648-21.148-10.73-29.395-4.4453-59.152-6.0156-88.852-4.6875-3.2812 0-6.5625 0.1875-9.7969 0.1875-120.84 0-187.12-85.102-204.89-111.77-8.457-12.918-18.496-24.73-29.883-35.156-7.125-6.4141-14.805-12.188-22.945-17.25-5.207-3.2266-11.18-5.0039-17.301-5.1484-6.125-0.14453-12.176 1.3516-17.527 4.3281-22.219 12.328-63.281 34.805-97.242 51.562-3.418 1.6875-6.0977 4.5625-7.543 8.0898-1.4414 3.5273-1.543 7.4609-0.28516 11.059z"/>
  <path d="m313.66 1143.9c5.5508-0.015624 10.816-2.4531 14.418-6.6719 3.6055-4.2227 5.1875-9.8047 4.332-15.289-5.5547-35.414-17.719-70.945-42.445-93.984-13.102-12.09-24.945-25.48-35.344-39.961-2.3164-3.207-5.7617-5.4219-9.6406-6.207-3.8789-0.78125-7.9102-0.070312-11.289 1.9883-29.539 17.594-53.555 43.113-69.328 73.664-7.8203 15.285-13.391 31.617-16.547 48.492-1.7852 9.3477 0.6875 19.008 6.7461 26.348 6.0586 7.3438 15.07 11.602 24.59 11.621z"/>
 </g>
</svg>

<?xml version="1.0" encoding="UTF-8" standalone="no"?>
<!DOCTYPE svg PUBLIC "-//W3C//DTD SVG 1.1//EN" "http://www.w3.org/Graphics/SVG/1.1/DTD/svg11.dtd">
<svg width="100%" height="100%" viewBox="0 0 427 512" version="1.1" xmlns="http://www.w3.org/2000/svg" xmlns:xlink="http://www.w3.org/1999/xlink" xml:space="preserve" xmlns:serif="http://www.serif.com/" style="fill-rule:evenodd;clip-rule:evenodd;stroke-linejoin:round;stroke-miterlimit:2;">
    <g transform="matrix(1,0,0,1,-147.249,-56.086)">
        <g transform="matrix(0.470663,0,0,0.470663,77.9442,29.6884)">
            <path d="M750.87,56.086L589.74,56.086C581.842,56.082 574.318,59.449 569.06,65.34C563.802,71.231 561.306,79.082 562.201,86.93C569.232,147.75 587.56,291.28 622.084,452.39C622.084,452.39 666.615,629.86 618.826,749.23C616.631,754.828 616.459,761.015 618.341,766.722C620.224,772.433 624.045,777.304 629.138,780.495C644.396,790.245 662.654,802.972 671.794,811.175C686.165,824.308 698.833,839.191 709.505,855.472C728.419,883.878 783.216,949.597 882.735,945.824C910.907,944.668 939.122,945.797 967.11,949.199C972.442,949.847 977.755,947.839 981.329,943.832C984.908,939.82 986.29,934.312 985.04,929.09C980.634,910.598 975.665,891.379 970.04,871.598C961.677,842.121 954.938,812.211 949.86,781.996C946.661,763.734 936.993,747.238 922.626,735.519C883.087,702.496 849.751,662.683 824.188,617.959C791.622,561.24 774.563,496.939 774.735,431.539L774.735,79.979C774.728,73.651 772.216,67.584 767.743,63.108C763.27,58.631 757.204,56.108 750.876,56.096L750.87,56.086Z" style="fill:white;fill-rule:nonzero;"/>
        </g>
        <g transform="matrix(0.470663,0,0,0.470663,77.9442,29.6884)">
            <path d="M307.29,977.58C311.86,982.689 316.899,987.869 322.524,993.096C359.532,1027.6 375.258,1079.51 381.118,1127.42C381.727,1131.96 383.962,1136.12 387.411,1139.14C390.86,1142.16 395.286,1143.82 399.868,1143.82L520.318,1143.82C525.603,1143.84 530.658,1141.66 534.263,1137.79C537.869,1133.92 539.693,1128.73 539.302,1123.46C535.927,1080.52 524.583,1032.71 493.904,1004.14C462.826,975.191 444.966,946.363 434.818,921.355C433.236,917.444 430.138,914.339 426.236,912.741C422.33,911.144 417.947,911.19 414.076,912.87C382.154,926.932 348.334,940.362 313.996,952.198C308.973,953.866 305.129,957.956 303.777,963.077C302.425,968.194 303.746,973.651 307.293,977.581L307.29,977.58Z" style="fill:white;fill-rule:nonzero;"/>
        </g>
        <g transform="matrix(0.470663,0,0,0.470663,77.9442,29.6884)">
            <path d="M846.38,56.086C840.036,56.086 833.954,58.606 829.466,63.086C824.982,67.57 822.458,73.648 822.45,79.992L822.45,431.552C822.275,488.572 837.118,544.632 865.481,594.092C879.473,618.404 895.969,641.182 914.7,662.061C918.505,666.245 924.509,667.635 929.766,665.553C935.024,663.467 938.442,658.342 938.348,652.686C937.227,549.706 955.516,447.436 992.254,351.236C993.778,347.205 995.348,343.174 996.942,339.095C996.942,339.095 1066.06,184.005 1050.36,79.995C1049.41,73.382 1046.11,67.327 1041.06,62.944C1036.02,58.557 1029.57,56.136 1022.89,56.112L846.38,56.086Z" style="fill:white;fill-rule:nonzero;"/>
        </g>
        <g transform="matrix(0.470663,0,0,0.470663,77.9442,29.6884)">
            <path d="M477.09,899.41C484.52,919.308 498.887,943.824 526.309,969.348C569.247,1009.36 583.543,1072.78 587.106,1126.22C587.426,1131.02 589.567,1135.53 593.087,1138.82C596.61,1142.1 601.251,1143.92 606.067,1143.91L984.157,1143.91C993.192,1143.93 1001.81,1140.11 1007.86,1133.41C1013.92,1126.7 1016.84,1117.74 1015.91,1108.76C1013.95,1089.21 1010.66,1062.31 1005.37,1030.01C1004.05,1022.01 1000.25,1014.64 994.5,1008.93C988.75,1003.22 981.352,999.469 973.352,998.204C943.957,993.758 914.2,992.188 884.5,993.516C881.219,993.516 877.938,993.704 874.703,993.704C753.863,993.704 687.583,908.602 669.813,881.934C661.356,869.016 651.317,857.204 639.93,846.778C632.805,840.364 625.125,834.59 616.985,829.528C611.778,826.301 605.805,824.524 599.684,824.379C593.559,824.235 587.508,825.731 582.157,828.707C559.938,841.035 518.876,863.512 484.915,880.269C481.497,881.957 478.818,884.832 477.372,888.359C475.931,891.886 475.829,895.82 477.087,899.418L477.09,899.41Z" style="fill:white;fill-rule:nonzero;"/>
        </g>
        <g transform="matrix(0.470663,0,0,0.470663,77.9442,29.6884)">
            <path d="M313.66,1143.9C319.211,1143.88 324.476,1141.45 328.078,1137.23C331.684,1133.01 333.266,1127.42 332.41,1121.94C326.855,1086.53 314.691,1050.99 289.965,1027.95C276.863,1015.87 265.02,1002.48 254.621,987.994C252.305,984.787 248.859,982.572 244.98,981.787C241.102,981.006 237.07,981.717 233.691,983.775C204.152,1001.37 180.136,1026.89 164.363,1057.44C156.543,1072.72 150.972,1089.06 147.816,1105.93C146.031,1115.28 148.504,1124.94 154.563,1132.28C160.621,1139.62 169.633,1143.88 179.153,1143.9L313.66,1143.9Z" style="fill:white;fill-rule:nonzero;"/>
        </g>
    </g>
</svg>
